public/cloud-icons/azure/compute/container-registry-webhook.svg

<?xml version="1.0" encoding="UTF-8" standalone="no"?>
<!-- Generated by Microsoft Visio, SVG Export Container Registry Webhook.svg Page-1 -->

<svg
   xmlns:dc="http://purl.org/dc/elements/1.1/"
   xmlns:cc="http://creativecommons.org/ns#"
   xmlns:rdf="http://www.w3.org/1999/02/22-rdf-syntax-ns#"
   xmlns:svg="http://www.w3.org/2000/svg"
   xmlns="http://www.w3.org/2000/svg"
   xmlns:sodipodi="http://sodipodi.sourceforge.net/DTD/sodipodi-0.dtd"
   xmlns:inkscape="http://www.inkscape.org/namespaces/inkscape"
   width="53.159431"
   height="49.287868"
   viewBox="0 0 53.159431 49.287867"
   xml:space="preserve"
   class="st3"
   version="1.1"
   id="svg24"
   sodipodi:docname="Container Registry Webhook.svg"
   style="font-size:12px;overflow:visible;color-interpolation-filters:sRGB;fill:none;fill-rule:evenodd;stroke-linecap:square;stroke-miterlimit:3"
   inkscape:version="0.92.5 (2060ec1f9f, 2020-04-08)"><metadata
   id="metadata30"><rdf:RDF><cc:Work
       rdf:about=""><dc:format>image/svg+xml</dc:format><dc:type
         rdf:resource="http://purl.org/dc/dcmitype/StillImage" /></cc:Work></rdf:RDF></metadata><defs
   id="defs28" /><sodipodi:namedview
   pagecolor="#ffffff"
   bordercolor="#666666"
   borderopacity="1"
   objecttolerance="10"
   gridtolerance="10"
   guidetolerance="10"
   inkscape:pageopacity="0"
   inkscape:pageshadow="2"
   inkscape:window-width="640"
   inkscape:window-height="480"
   id="namedview26"
   showgrid="false"
   inkscape:zoom="2.4260017"
   inkscape:cx="26.580187"
   inkscape:cy="12.892467"
   inkscape:window-x="0"
   inkscape:window-y="0"
   inkscape:window-maximized="0"
   inkscape:current-layer="svg24" />
	<style
   type="text/css"
   id="style2">
	<![CDATA[
		.st1 {fill:#57a300;stroke:none;stroke-linecap:butt;stroke-width:12.24}
		.st2 {fill:#0072c6;stroke:none;stroke-linecap:butt;stroke-width:12.24}
		.st3 {fill:none;fill-rule:evenodd;font-size:12px;overflow:visible;stroke-linecap:square;stroke-miterlimit:3}
	]]>
	</style>

	<g
   id="g22"
   transform="translate(-12.240663,-12.2443)">
		<title
   id="title4">Page-1</title>
		<g
   id="group12170-1"
   transform="translate(10.4815,-34.0157)">
			<title
   id="title6">Container Registry Webhook.12170</title>
			<g
   id="group12171-2">
				<title
   id="title8">Sheet.12171</title>
				<g
   id="shape12172-3">
					<title
   id="title10">Sheet.12172</title>
					<path
   d="M 37.73,84.61 26.84,84.58 C 26.37,88.11 24.3,91.72 21.02,93.72 15.17,97.28 7.4,95.48 3.7,89.71 0,83.95 1.75,76.36 7.59,72.79 a 12.2354,11.9226 0 0 1 5.46,-1.76 L 12,74.23 a 9.44439,9.2029 -180 0 0 -2.82,1.15 9.45826,9.21641 -180 0 0 -3.01,12.7 c 2.77,4.31 8.73,5.81 13.04,2.93 4.4,-2.95 4.5,-9.79 4.5,-9.79 H 37.73 Z M 28.86,46.26 c -6.98,0 -12.66,5.46 -12.66,12.18 0,3.77 2.25,7.53 5.07,9.78 l -6.53,10.7 a 4.58813,4.47082 0 0 1 2.8,1.67 l 8.34,-13.43 -0.29,-0.18 c -3.55,-1.33 -6.07,-4.67 -6.07,-8.6 a 9.45826,9.21641 0 1 1 18.91,0 c 0,1.03 -0.18,2.02 -0.5,2.94 l 2.24,2.56 a 12.2331,11.9203 -180 0 0 1.35,-5.44 c 0,-6.72 -5.68,-12.18 -12.66,-12.18 z M 48.87,71.97 C 45.55,70.04 41.08,69.99 37.65,71.2 l -5.07,-9.93 a 4.58582,4.46856 0 0 1 -3.34,1.44 c 0.14,0 0.27,0 0.41,-0.01 l 6.57,12.9 0.31,-0.15 c 2.99,-2.29 7.23,-2.69 10.69,-0.68 A 9.4571,9.21529 0 0 1 50.49,87.41 9.4571,9.21529 0 0 1 37.52,90.6 9.28259,9.04524 0 0 1 35.59,89.07 L 32.2,89.8 a 12.1661,11.855 -180 0 0 3.69,3.36 c 5.92,3.44 13.64,1.49 17.22,-4.35 3.58,-5.84 1.68,-13.4 -4.24,-16.84 z"
   class="st1"
   id="path12"
   inkscape:connector-curvature="0"
   style="fill:#57a300;stroke:none;stroke-width:12.23999977;stroke-linecap:butt" />
				</g>
				<g
   id="shape12173-5"
   transform="translate(9.50506,-9.75471)">
					<title
   id="title15">Sheet.12173</title>
					<path
   d="m 37.05,92.53 a 4.61529,4.49728 0 1 1 -9.23,0 4.61529,4.49728 0 1 1 9.23,0 z M 4.62,88.28 a 4.6180814,4.5 -180 1 0 0,9 4.6180814,4.5 -180 0 0 0,-9 z m 14.96,-24.6 a 4.6180814,4.5 -180 1 0 0,9 4.6180814,4.5 -180 0 0 0,-9 z"
   class="st2"
   id="path17"
   inkscape:connector-curvature="0"
   style="fill:#0072c6;stroke:none;stroke-width:12.23999977;stroke-linecap:butt" />
				</g>
			</g>
		</g>
	</g>
</svg>

<svg xmlns="http://www.w3.org/2000/svg" xml:space="preserve" width="53.159" height="49.288" style="font-size:12px;overflow:visible;color-interpolation-filters:sRGB;fill-rule:evenodd;stroke-linecap:square;stroke-miterlimit:3" viewBox="0 0 53.159 49.288"><g transform="translate(-12.24 -12.244)"><title>Page-1</title><g transform="translate(10.482 -34.016)"><title>Container Registry Webhook.12170</title><title>Sheet.12171</title><title>Sheet.12172</title><path d="m37.73 84.61-10.89-.03c-.47 3.53-2.54 7.14-5.82 9.14-5.85 3.56-13.62 1.76-17.32-4.01a12.1 12.1 0 0 1 3.89-16.92 12.235 11.923 0 0 1 5.46-1.76L12 74.23a9.444 9.203-180 0 0-2.82 1.15 9.458 9.216-180 0 0-3.01 12.7c2.77 4.31 8.73 5.81 13.04 2.93 4.4-2.95 4.5-9.79 4.5-9.79h14.02Zm-8.87-38.35c-6.98 0-12.66 5.46-12.66 12.18 0 3.77 2.25 7.53 5.07 9.78l-6.53 10.7a4.588 4.47 0 0 1 2.8 1.67l8.34-13.43-.29-.18c-3.55-1.33-6.07-4.67-6.07-8.6a9.458 9.216 0 1 1 18.91 0c0 1.03-.18 2.02-.5 2.94l2.24 2.56a12.233 11.92-180 0 0 1.35-5.44c0-6.72-5.68-12.18-12.66-12.18m20.01 25.71c-3.32-1.93-7.79-1.98-11.22-.77l-5.07-9.93a4.586 4.469 0 0 1-3.34 1.44c.14 0 .27 0 .41-.01l6.57 12.9.31-.15c2.99-2.29 7.23-2.69 10.69-.68a9.457 9.215 0 0 1 3.27 12.64 9.457 9.215 0 0 1-12.97 3.19 9.283 9.045 0 0 1-1.93-1.53l-3.39.73a12.166 11.855-180 0 0 3.69 3.36c5.92 3.44 13.64 1.49 17.22-4.35s1.68-13.4-4.24-16.84" style="fill:#57a300;stroke:none;stroke-width:12.23999977;stroke-linecap:butt"/><g transform="translate(9.505 -9.755)"><title>Sheet.12173</title><path d="M37.05 92.53a4.615 4.497 0 1 1-9.23 0 4.615 4.497 0 1 1 9.23 0M4.62 88.28a4.618 4.5-180 1 0 0 9 4.618 4.5-180 0 0 0-9m14.96-24.6a4.618 4.5-180 1 0 0 9 4.618 4.5-180 0 0 0-9" style="fill:#0072c6;stroke:none;stroke-width:12.23999977;stroke-linecap:butt"/></g></g></g></svg>
